src/assets/outline/Maximize2.svg

<svg width="24" height="24" viewBox="0 0 24 24"  xmlns="http://www.w3.org/2000/svg">
<path d="M15 22.75H14C13.59 22.75 13.25 22.41 13.25 22C13.25 21.59 13.59 21.25 14 21.25H15C19.61 21.25 21.25 19.61 21.25 15V9C21.25 4.39 19.61 2.75 15 2.75H9C4.39 2.75 2.75 4.39 2.75 9V9.98C2.75 10.39 2.41 10.73 2 10.73C1.59 10.73 1.25 10.39 1.25 9.98V9C1.25 3.57 3.57 1.25 9 1.25H15C20.43 1.25 22.75 3.57 22.75 9V15C22.75 20.43 20.43 22.75 15 22.75Z" />
<path d="M12.9999 11.7497C12.8099 11.7497 12.6199 11.6797 12.4699 11.5297C12.1799 11.2397 12.1799 10.7597 12.4699 10.4697L16.2099 6.71973H13.9999C13.5899 6.71973 13.2499 6.37973 13.2499 5.96973C13.2499 5.55973 13.5799 5.21973 13.9999 5.21973H18.0099C18.3099 5.21973 18.5899 5.39973 18.6999 5.67973C18.8199 5.95973 18.7499 6.27973 18.5399 6.49973L13.5299 11.5297C13.3799 11.6797 13.1899 11.7497 12.9999 11.7497Z" />
<path d="M18.0098 10.7397C17.5998 10.7397 17.2598 10.3997 17.2598 9.98973V5.96973C17.2598 5.55973 17.5998 5.21973 18.0098 5.21973C18.4198 5.21973 18.7598 5.55973 18.7598 5.96973V9.97973C18.7598 10.3997 18.4198 10.7397 18.0098 10.7397Z" />
<path d="M7.85 22.75H5.15C2.49 22.75 1.25 21.51 1.25 18.85V16.15C1.25 13.49 2.49 12.25 5.15 12.25H7.85C10.51 12.25 11.75 13.49 11.75 16.15V18.85C11.75 21.51 10.51 22.75 7.85 22.75ZM5.15 13.75C3.31 13.75 2.75 14.31 2.75 16.15V18.85C2.75 20.69 3.31 21.25 5.15 21.25H7.85C9.69 21.25 10.25 20.69 10.25 18.85V16.15C10.25 14.31 9.69 13.75 7.85 13.75H5.15Z" />
</svg>

<?xml version="1.0" encoding="UTF-8"?>
<svg width="24" height="24" viewBox="0 0 24 24" xmlns="http://www.w3.org/2000/svg">
 <path d="m15 22.75h-1c-0.41 0-0.75-0.34-0.75-0.75s0.34-0.75 0.75-0.75h1c4.61 0 6.25-1.64 6.25-6.25v-6c0-4.61-1.64-6.25-6.25-6.25h-6c-4.61 0-6.25 1.64-6.25 6.25v0.98c0 0.41-0.34 0.75-0.75 0.75s-0.75-0.34-0.75-0.75v-0.98c0-5.43 2.32-7.75 7.75-7.75h6c5.43 0 7.75 2.32 7.75 7.75v6c0 5.43-2.32 7.75-7.75 7.75z"/>
 <path d="m13 11.75c-0.19 0-0.38-0.07-0.53-0.22-0.29-0.29-0.29-0.77 0-1.06l3.74-3.75h-2.21c-0.41 0-0.75-0.34-0.75-0.75s0.33-0.75 0.75-0.75h4.01c0.3 0 0.58 0.18 0.69 0.46 0.12 0.28 0.05 0.6-0.16 0.82l-5.01 5.03c-0.15 0.15-0.34 0.22-0.53 0.22z"/>
 <path d="m18.01 10.74c-0.41 0-0.75-0.34-0.75-0.74997v-4.02c0-0.41 0.34-0.75 0.75-0.75s0.75 0.34 0.75 0.75v4.01c0 0.41997-0.34 0.75997-0.75 0.75997z"/>
 <path d="m7.85 22.75h-2.7c-2.66 0-3.9-1.24-3.9-3.9v-2.7c0-2.66 1.24-3.9 3.9-3.9h2.7c2.66 0 3.9 1.24 3.9 3.9v2.7c0 2.66-1.24 3.9-3.9 3.9zm-2.7-9c-1.84 0-2.4 0.56-2.4 2.4v2.7c0 1.84 0.56 2.4 2.4 2.4h2.7c1.84 0 2.4-0.56 2.4-2.4v-2.7c0-1.84-0.56-2.4-2.4-2.4h-2.7z"/>
</svg>
